X:383
T: Betrogen (109), S. 263
N: T0272
O: Luxemburg
S: Singendes Volk, Esch-Alzette 1937 posth.]
N: Rammeldingen, hhh Nikolaus Felten, 25.2.1934
R: Liebeslieder]
M: 3/4
L: 1/16
K: G
D2G2 | G4G4B2G2 | D4D4
G2G2 | E6F2G2E2 | D4z4
D2D2 | c4c2c2d2c2 | B4B4
GGG2 | A4A4D4 | G4z4

@@@ Tune index: 8437
